icons/creative-commons-nc-fill.svg

<svg xmlns="http://www.w3.org/2000/svg" width="24" height="24" fill="none"><g clip-path="url(#a)"><g><path fill="#121212" d="M4.256 5.67201L7.836 9.24901C7.62324 9.61698 7.5078 10.0331 7.50061 10.4581C7.49342 10.8831 7.5947 11.3029 7.79489 11.6779C7.99508 12.0528 8.28757 12.3705 8.64471 12.601C9.00186 12.8315 9.41187 12.9671 9.836 12.995L10 13H14L14.09 13.008C14.2053 13.0289 14.3096 13.0896 14.3847 13.1795C14.4598 13.2694 14.5009 13.3829 14.5009 13.5C14.5009 13.6172 14.4598 13.7306 14.3847 13.8205C14.3096 13.9104 14.2053 13.9711 14.09 13.992L14 14H8.5V16H11V18H13V16H14C14.121 16 14.24 15.991 14.357 15.975L14.53 15.944L18.328 19.744C16.5436 21.2062 14.307 22.0036 12 22C6.477 22 2 17.523 2 12C2 9.60001 2.846 7.39601 4.256 5.67201ZM12 2.00001C17.523 2.00001 22 6.47701 22 12C22 14.4 21.154 16.604 19.744 18.328L16.165 14.751C16.3775 14.3831 16.4928 13.967 16.4998 13.5422C16.5069 13.1173 16.4056 12.6977 16.2054 12.3229C16.0053 11.9481 15.7129 11.6305 15.3558 11.4001C14.9988 11.1696 14.589 11.034 14.165 11.006L14 11H10L9.91 10.992C9.79472 10.9711 9.69043 10.9104 9.61532 10.8205C9.54022 10.7306 9.49908 10.6172 9.49908 10.5C9.49908 10.3829 9.54022 10.2694 9.61532 10.1795C9.69043 10.0896 9.79472 10.0289 9.91 10.008L10 10H15.5V8.00001H13V6.00001H11V8.00001H10C9.879 8.00001 9.76 8.00901 9.644 8.02501L9.471 8.05601L5.672 4.25601C7.45637 2.79378 9.69304 1.99639 12 2.00001Z"/></g></g><defs><clipPath id="a"><rect width="24" height="24" fill="white"/></clipPath></defs></svg>

<svg width="24" height="24" fill="none" xmlns="http://www.w3.org/2000/svg"><g clip-path="url(#a)"><path d="m4.256 5.672 3.58 3.577a2.5 2.5 0 0 0 2 3.746L10 13h4l.09.008a.5.5 0 0 1 0 .984L14 14H8.5v2H11v2h2v-2h1c.121 0 .24-.009.357-.025l.173-.031 3.798 3.8A9.96 9.96 0 0 1 12 22C6.477 22 2 17.523 2 12c0-2.4.846-4.604 2.256-6.328ZM12 2c5.523 0 10 4.477 10 10 0 2.4-.846 4.604-2.256 6.328l-3.579-3.577a2.5 2.5 0 0 0-2-3.745L14 11h-4l-.09-.008a.5.5 0 0 1 0-.984L10 10h5.5V8H13V6h-2v2h-1c-.121 0-.24.009-.356.025l-.173.031-3.799-3.8A9.96 9.96 0 0 1 12 2Z" /></g><defs><clipPath id="a"><path fill="#fff" d="M0 0h24v24H0z"/></clipPath></defs></svg>
